X:435
T: Mist in the Meadow
S: B.Flaherty
Z: B.Black
M: 6/8
L: 1/8
R: jig
K: G
d | gdB BAB | GBA GBd | gdB BAB | GBd e2 d |
gdB BAB | GBA GBd | gfe fdB | ABd e2 :|
d | g2-g bge | fef afd | g2-g bge | fed e2 d |
|1 gfg bge | fef afd | gfe fdB | sABd e2 :|
|2 gbb bag | faa afd | gfe fdB | ABd e2 ||
